X: 52
T:For Beth
% Nottingham Music Database
S:Heather Bexon, via PR
M:4/4
L:1/4
K:C
"C"c2 -c/2B/2c|"G"B2 -B/2A/2B|"C"A/2BA/2 "G"GD|"C"E3G|"C"c2 -c/2B/2c|\
"G"B2 -B/2A/2B|
"D"Ad -d/2B/2A|"G"G^F G^G|"A7"A2 -A/2^G/2A|"Dm"FE D2|"G"B2 -B/2A/2B|"Em"GF E2|
"Am"c2 -c/2B/2c|"D7"ed ce|"G"dd BG|_E=E GA|"C"c2 -c/2B/2c|"G"B2 -B/2A/2B|
"C"A/2BA/2 "G"GD|"C"E4|"C"EG EG-|G/2A/2G ce|"F"d4|"Bb"d3^d|"C"ec cA|
G/2A/2G E2|"Ab"_ec c_A|"C"D/2E/2G G2|"Dm"A2 -A/2^G/2A|"G"B2 -B/2A/2B|"C"c4-|c4\
||


